svg/sun_snowflake.svg

<svg xmlns="http://www.w3.org/2000/svg" viewBox="0 0 24 24"><path d="M12 .69 8.69 4H4v4.69L.69 12 4 15.31V20h4.69L12 23.31l1-1v-4.48l3.24 3.24 1.42-1.41L13 15v-2h2l4.66 4.66 1.41-1.42L17.83 13H22v-2h-4.17l3.24-3.24-1.41-1.42L15 11h-2V9l4.66-4.66-1.42-1.41L13 6.17V1.69m-2 4.4v2.04c-1.76.46-3 2.05-3 3.87a4.01 4.01 0 0 0 3 3.87v2.04A6 6 0 0 1 6 12c0-2.93 2.11-5.43 5-5.91"/></svg>

<svg xmlns="http://www.w3.org/2000/svg" id="mdi-sun-snowflake" viewBox="0 0 24 24"><path d="M12 .69L8.69 4H4V8.69L.69 12L4 15.31V20H8.69L12 23.31L13 22.31V17.83L16.24 21.07L17.66 19.66L13 15V13H15L19.66 17.66L21.07 16.24L17.83 13H22V11H17.83L21.07 7.76L19.66 6.34L15 11H13V9L17.66 4.34L16.24 2.93L13 6.17V1.69M11 6.09V8.13C9.24 8.59 8 10.18 8 12C8 13.82 9.24 15.41 11 15.87V17.91C8.12 17.42 6 14.93 6 12C6 9.07 8.11 6.57 11 6.09Z" /></svg>
